Tizora/dist/assets/img/about/about-folder.svg

<svg width="113" height="113" viewBox="0 0 113 113" fill="none" xmlns="http://www.w3.org/2000/svg">
<path d="M32.9583 70.625L54.1458 42.375L70.625 63.5625L82.3958 49.4375L98.875 70.625M103.583 18.8333H65.9167L56.5 9.41663H28.25C25.7525 9.41663 23.3574 10.4087 21.5914 12.1747C19.8254 13.9407 18.8333 16.3358 18.8333 18.8333V75.3333C18.8333 77.8307 19.8254 80.2259 21.5914 81.9919C23.3574 83.7578 25.7525 84.75 28.25 84.75H103.583C106.081 84.75 108.476 83.7578 110.242 81.9919C112.008 80.2259 113 77.8307 113 75.3333V28.25C113 25.7525 112.008 23.3573 110.242 21.5914C108.476 19.8254 106.081 18.8333 103.583 18.8333ZM9.41667 28.25H0V94.1666C0 96.6641 0.99211 99.0592 2.75808 100.825C4.52405 102.591 6.91921 103.583 9.41667 103.583H94.1667V94.1666H9.41667V28.25Z" fill="url(#paint0_linear_108_113)"/>
<defs>
<linearGradient id="paint0_linear_108_113" x1="56.5" y1="9.41663" x2="56.5" y2="103.583" gradientUnits="userSpaceOnUse">
<stop stop-color="#4D463A"/>
<stop offset="1" stop-color="#4D463A" stop-opacity="0.21"/>
</linearGradient>
</defs>
</svg>

<svg width="113" height="113" fill="none" xmlns="http://www.w3.org/2000/svg"><path d="M32.958 70.625l21.188-28.25 16.479 21.188 11.77-14.126 16.48 21.188m4.708-51.792H65.917L56.5 9.417H28.25a9.417 9.417 0 00-9.417 9.416v56.5a9.417 9.417 0 009.417 9.417h75.333A9.417 9.417 0 00113 75.333V28.25a9.416 9.416 0 00-9.417-9.417zM9.417 28.25H0v65.917a9.416 9.416 0 009.417 9.416h84.75v-9.416H9.417V28.25z" fill="url(#paint0_linear_108_113)"/><defs><linearGradient id="paint0_linear_108_113" x1="56.5" y1="9.417" x2="56.5" y2="103.583" gradientUnits="userSpaceOnUse"><stop stop-color="#4D463A"/><stop offset="1" stop-color="#4D463A" stop-opacity=".21"/></linearGradient></defs></svg>
